icons/solid/home.svg

<svg width="24" height="24" viewBox="0 0 24 24" fill="none" xmlns="http://www.w3.org/2000/svg">
<path fill-rule="evenodd" clip-rule="evenodd" d="M10.6984 2.79856C11.4474 2.15658 12.5526 2.15658 13.3016 2.79856L19.6379 8.22972L22.1247 10.2191C22.556 10.5641 22.6259 11.1934 22.2809 11.6247C21.9359 12.056 21.3066 12.1259 20.8753 11.7809L20 11.0806V19C20 20.1046 19.1046 21 18 21H14V16C14 14.8954 13.1046 14 12 14C10.8954 14 10 14.8954 10 16V21H6.00001C4.89544 21 4.00001 20.1046 4.00001 19V11.0806L3.1247 11.7809C2.69344 12.1259 2.06415 12.056 1.71914 11.6247C1.37413 11.1934 1.44405 10.5641 1.87531 10.2191L4.36209 8.22971L10.6984 2.79856Z" fill="currentColor"/>
</svg>

<svg width="24" height="24" fill="none" xmlns="http://www.w3.org/2000/svg"><path fill-rule="evenodd" clip-rule="evenodd" d="M10.698 2.799a2 2 0 012.604 0l6.336 5.43 2.487 1.99a1 1 0 11-1.25 1.562l-.875-.7V19a2 2 0 01-2 2h-4v-5a2 2 0 10-4 0v5H6a2 2 0 01-2-2v-7.92l-.875.7a1 1 0 11-1.25-1.56l2.487-1.99 6.336-5.431z" fill="currentColor"/></svg>
